assets/images/icons/src/connectdevelop.svg

<?xml version="1.0" encoding="utf-8"?>
<!-- Generated by IcoMoon.io -->
<!DOCTYPE svg PUBLIC "-//W3C//DTD SVG 1.1//EN" "http://www.w3.org/Graphics/SVG/1.1/DTD/svg11.dtd">
<svg version="1.1" xmlns="http://www.w3.org/2000/svg" xmlns:xlink="http://www.w3.org/1999/xlink" width="16" height="14" viewBox="0 0 16 14">
<path fill="#444444" d="M16 6.992q0 0.164-0.102 0.285t-0.258 0.152l-1.602 2.781q0.023 0.070 0.023 0.141 0 0.156-0.098 0.277t-0.254 0.152l-1.508 2.633q0.023 0.062 0.023 0.125 0 0.18-0.129 0.312t-0.316 0.133q-0.195 0-0.32-0.141h-3.125q-0.133 0.156-0.336 0.156t-0.336-0.156h-3.117q-0.133 0.156-0.336 0.156-0.18 0-0.312-0.129t-0.133-0.316q0-0.062 0.031-0.156l-1.508-2.617q-0.156-0.031-0.254-0.152t-0.098-0.277q0-0.070 0.023-0.141l-1.609-2.781q-0.156-0.039-0.254-0.16t-0.098-0.277q0-0.164 0.105-0.285t0.262-0.152l1.555-2.687q0-0.008-0.004-0.023t-0.004-0.023q0-0.281 0.266-0.398l1.633-2.836q-0.031-0.078-0.031-0.141 0-0.187 0.133-0.316t0.312-0.129q0.203 0 0.344 0.164h3.094q0.125-0.164 0.336-0.164t0.336 0.164h3.109q0.141-0.164 0.344-0.164 0.18 0 0.312 0.129t0.133 0.316q0 0.047-0.031 0.141l1.617 2.797q0.18 0.008 0.305 0.137t0.125 0.301q0 0.102-0.055 0.211l1.461 2.531q0.148 0.031 0.246 0.152t0.098 0.277zM8.305 13.234h3.039l-2.672-2.766h-1.117l-2.672 2.766h2.812q0.141-0.125 0.305-0.125t0.305 0.125zM0.875 6.891q0.008 0.031 0.008 0.102 0 0.078-0.016 0.117l1.625 2.812q0.016 0 0.035 0.008t0.043 0.020l0.039 0.020 1.469-1.555v-2.711l-1.461-1.516q-0.102 0.062-0.227 0.078zM7.703 0.766h-3.031l1.484 1.563 4.328-1.563h-2.188q-0.125 0.125-0.297 0.125t-0.297-0.125zM13.195 10.234q0.008-0.047 0.039-0.086l-0.5-0.531-0.133 0.617h0.594zM12.367 10.234l0.172-0.82-1.969-2.078-2.313 2.398 0.492 0.5h3.617zM11.68 13.109l0.125-0.219 0.508-2.422h-3.336l2.602 2.68q0.062-0.031 0.102-0.039zM4.516 13.234h0.039l2.672-2.766h-2.914v2.617l0.031 0.047q0.109 0.039 0.172 0.102zM4.313 10.234h3.141l0.5-0.516-2.414-2.508-1.227 1.297v1.727zM2.805 10.234h1.273v-1.477l-1.313 1.383q0.031 0.062 0.039 0.094zM2.797 3.789q0 0.008 0.004 0.016t0.004 0.016q0 0.125-0.062 0.227l1.336 1.383v-2.102zM4.313 3.242v2.43l1.195 1.227 2.32-2.453-1.742-1.844zM4.344 0.867l-0.031 0.062v2.062l1.602-0.578-1.492-1.57q-0.047 0.016-0.078 0.023zM11.305 0.766h-0.125l-4.852 1.75 1.664 1.758zM7.992 4.609l-2.32 2.461 2.43 2.492 2.313-2.398zM5.375 7.047l-1.062-1.102v2.219zM8.109 9.891l-0.328 0.344h0.664zM10.734 7.172l1.859 1.961 1.031-4.875-0.023-0.039-0.008-0.008zM13.422 4.047q-0.062-0.102-0.062-0.227v-0.016l-1.688-2.937q-0.039-0.008-0.102-0.039l-3.414 3.617 2.422 2.555zM4.078 3.078v-1.742l-1.273 2.203zM4.078 10.469h-1.273l1.273 2.211v-2.211zM12.555 10.469l-0.375 1.773 1.016-1.773h-0.641zM13.508 9.922l1.617-2.82q-0.016-0.078-0.016-0.109 0-0.008 0.023-0.125l-1.336-2.313-1.008 4.781 0.602 0.641q0.039-0.023 0.117-0.055z"></path>
</svg>

<svg xmlns="http://www.w3.org/2000/svg" width="16" height="14" viewBox="0 0 16 14"><path fill="#444" d="M16 6.992q0 .164-.102.285t-.258.152l-1.602 2.781q.023.07.023.141 0 .156-.098.277t-.254.152l-1.508 2.633q.023.062.023.125 0 .18-.129.312t-.316.133q-.195 0-.32-.141H8.334q-.133.156-.336.156t-.336-.156H4.545q-.133.156-.336.156-.18 0-.312-.129t-.133-.316q0-.062.031-.156L2.287 10.78q-.156-.031-.254-.152t-.098-.277q0-.07.023-.141L.349 7.429q-.156-.039-.254-.16t-.098-.277q0-.164.105-.285t.262-.152l1.555-2.687q0-.008-.004-.023t-.004-.023q0-.281.266-.398L3.81.588Q3.779.51 3.779.447q0-.187.133-.316t.312-.129q.203 0 .344.164h3.094q.125-.164.336-.164t.336.164h3.109q.141-.164.344-.164.18 0 .312.129t.133.316q0 .047-.031.141l1.617 2.797q.18.008.305.137t.125.301q0 .102-.055.211l1.461 2.531q.148.031.246.152t.098.277zm-7.695 6.242h3.039l-2.672-2.766H7.555l-2.672 2.766h2.812q.141-.125.305-.125t.305.125zM.875 6.891q.008.031.008.102 0 .078-.016.117l1.625 2.812q.016 0 .035.008t.043.02l.039.02 1.469-1.555V5.704L2.617 4.188q-.102.062-.227.078zM7.703.766H4.672l1.484 1.563L10.484.766H8.296q-.125.125-.297.125T7.702.766zm5.492 9.468q.008-.047.039-.086l-.5-.531-.133.617h.594zm-.828 0l.172-.82-1.969-2.078-2.313 2.398.492.5h3.617zm-.687 2.875l.125-.219.508-2.422H8.977l2.602 2.68q.062-.031.102-.039zm-7.164.125h.039l2.672-2.766H4.313v2.617l.031.047q.109.039.172.102zm-.203-3h3.141l.5-.516L5.54 7.21 4.313 8.507v1.727zm-1.508 0h1.273V8.757L2.765 10.14q.031.062.039.094zm-.008-6.445q0 .008.004.016t.004.016q0 .125-.062.227l1.336 1.383V3.329zm1.516-.547v2.43l1.195 1.227 2.32-2.453-1.742-1.844zM4.344.867l-.031.062v2.062l1.602-.578L4.423.843q-.047.016-.078.023zm6.961-.101h-.125l-4.852 1.75 1.664 1.758zM7.992 4.609L5.672 7.07l2.43 2.492 2.313-2.398zM5.375 7.047L4.313 5.945v2.219zm2.734 2.844l-.328.344h.664zm2.625-2.719l1.859 1.961 1.031-4.875-.023-.039-.008-.008zm2.688-3.125q-.062-.102-.062-.227v-.016L11.672.867q-.039-.008-.102-.039L8.156 4.445 10.578 7zm-9.344-.969V1.336L2.805 3.539zm0 7.391H2.805l1.273 2.211v-2.211zm8.477 0l-.375 1.773 1.016-1.773h-.641zm.953-.547l1.617-2.82q-.016-.078-.016-.109 0-.008.023-.125l-1.336-2.313-1.008 4.781.602.641q.039-.023.117-.055z"/></svg>
